alpha-y-circle.svg

<svg fill="currentColor" viewBox="0 0 24 24"><path d="m9 7 2 6v4h2v-4l2-6h-2l-1 3-1-3zm3-5a10 10 0 0 1 10 10 10 10 0 0 1-10 10A10 10 0 0 1 2 12 10 10 0 0 1 12 2"/></svg>

<svg  viewBox="0 0 24 24" fill="currentColor"><path  d="M9,7L11,13V17H13V13L15,7H13L12,10L11,7H9M12,2A10,10 0 0,1 22,12A10,10 0 0,1 12,22A10,10 0 0,1 2,12A10,10 0 0,1 12,2Z"/></svg>
